svg/traffic_light.svg

<svg xmlns="http://www.w3.org/2000/svg" width="24" height="24" viewBox="0 0 24 24"><path d="M12 9a2 2 0 0 1-2-2 2 2 0 0 1 2-2c1.11 0 2 .89 2 2a2 2 0 0 1-2 2m0 5a2 2 0 0 1-2-2 2 2 0 0 1 2-2c1.11 0 2 .89 2 2a2 2 0 0 1-2 2m0 5a2 2 0 0 1-2-2 2 2 0 0 1 2-2c1.11 0 2 .89 2 2a2 2 0 0 1-2 2m8-9h-3V8.86c1.72-.45 3-2 3-3.86h-3V4a1 1 0 0 0-1-1H8a1 1 0 0 0-1 1v1H4c0 1.86 1.28 3.41 3 3.86V10H4c0 1.86 1.28 3.41 3 3.86V15H4c0 1.86 1.28 3.41 3 3.86V20a1 1 0 0 0 1 1h8a1 1 0 0 0 1-1v-1.14c1.72-.45 3-2 3-3.86h-3v-1.14c1.72-.45 3-2 3-3.86z"/></svg>

<?xml version="1.0" encoding="UTF-8"?><!DOCTYPE svg PUBLIC "-//W3C//DTD SVG 1.1//EN" "http://www.w3.org/Graphics/SVG/1.1/DTD/svg11.dtd"><svg xmlns="http://www.w3.org/2000/svg" xmlns:xlink="http://www.w3.org/1999/xlink" version="1.1" width="24" height="24" viewBox="0 0 24 24"><path d="M12,9A2,2 0 0,1 10,7C10,5.89 10.9,5 12,5C13.11,5 14,5.89 14,7A2,2 0 0,1 12,9M12,14A2,2 0 0,1 10,12C10,10.89 10.9,10 12,10C13.11,10 14,10.89 14,12A2,2 0 0,1 12,14M12,19A2,2 0 0,1 10,17C10,15.89 10.9,15 12,15C13.11,15 14,15.89 14,17A2,2 0 0,1 12,19M20,10H17V8.86C18.72,8.41 20,6.86 20,5H17V4A1,1 0 0,0 16,3H8A1,1 0 0,0 7,4V5H4C4,6.86 5.28,8.41 7,8.86V10H4C4,11.86 5.28,13.41 7,13.86V15H4C4,16.86 5.28,18.41 7,18.86V20A1,1 0 0,0 8,21H16A1,1 0 0,0 17,20V18.86C18.72,18.41 20,16.86 20,15H17V13.86C18.72,13.41 20,11.86 20,10Z" /></svg>
